Simply black circles/scalable/mimes/x-office-spreadsheet.svg

<?xml version="1.0" encoding="UTF-8" standalone="no"?>
<!-- Created with Inkscape (http://www.inkscape.org/) -->

<svg
   xmlns:dc="http://purl.org/dc/elements/1.1/"
   xmlns:cc="http://creativecommons.org/ns#"
   xmlns:rdf="http://www.w3.org/1999/02/22-rdf-syntax-ns#"
   xmlns:svg="http://www.w3.org/2000/svg"
   xmlns="http://www.w3.org/2000/svg"
   xmlns:xlink="http://www.w3.org/1999/xlink"
   xmlns:sodipodi="http://sodipodi.sourceforge.net/DTD/sodipodi-0.dtd"
   xmlns:inkscape="http://www.inkscape.org/namespaces/inkscape"
   version="1.1"
   width="48"
   height="48"
   id="svg21744"
   sodipodi:docname="x-office-spreadsheet.svg"
   inkscape:version="0.92.3 (2405546, 2018-03-11)">
  <sodipodi:namedview
     pagecolor="#ffffff"
     bordercolor="#666666"
     borderopacity="1"
     objecttolerance="10"
     gridtolerance="10"
     guidetolerance="10"
     inkscape:pageopacity="0"
     inkscape:pageshadow="2"
     inkscape:window-width="1366"
     inkscape:window-height="690"
     id="namedview44"
     showgrid="false"
     inkscape:zoom="3.6460193"
     inkscape:cx="1.3575758"
     inkscape:cy="24"
     inkscape:window-x="0"
     inkscape:window-y="28"
     inkscape:window-maximized="1"
     inkscape:current-layer="svg21744"
     inkscape:snap-global="false" />
  <defs
     id="defs21746">
    <linearGradient
       x1="525.4375"
       y1="836.1875"
       x2="516.65625"
       y2="828.5"
       id="linearGradient14113"
       xlink:href="#linearGradient14494-2-7"
       gradientUnits="userSpaceOnUse"
       gradientTransform="translate(-125.5,-1702.64)" />
    <linearGradient
       id="linearGradient14494-2-7">
      <stop
         id="stop14496-9-3"
         style="stop-color:#dc85e9;stop-opacity:1"
         offset="0" />
      <stop
         id="stop14498-9-7"
         style="stop-color:#f2cbf8;stop-opacity:1"
         offset="1" />
    </linearGradient>
    <linearGradient
       x1="520.58502"
       y1="735.05206"
       x2="516.15179"
       y2="720.86298"
       id="linearGradient14115"
       xlink:href="#linearGradient14494-5"
       gradientUnits="userSpaceOnUse" />
    <linearGradient
       id="linearGradient14494-5">
      <stop
         id="stop14496-5"
         style="stop-color:#dc85e9;stop-opacity:1"
         offset="0" />
      <stop
         id="stop14498-1"
         style="stop-color:#f2cbf8;stop-opacity:1"
         offset="1" />
    </linearGradient>
    <linearGradient
       x1="525.4375"
       y1="836.1875"
       x2="516.65625"
       y2="828.5"
       id="linearGradient54948"
       xlink:href="#linearGradient14494-2-7"
       gradientUnits="userSpaceOnUse"
       gradientTransform="translate(-462.50049,-802.00385)" />
    <linearGradient
       x1="520.58502"
       y1="735.05206"
       x2="516.15179"
       y2="720.86298"
       id="linearGradient14109"
       xlink:href="#linearGradient14494-5"
       gradientUnits="userSpaceOnUse"
       gradientTransform="matrix(0.512535,0,0,0.615385,-202.35949,-422.92385)" />
    <linearGradient
       x1="525.4375"
       y1="836.1875"
       x2="516.65625"
       y2="828.5"
       id="linearGradient54952"
       xlink:href="#linearGradient14494-2-7"
       gradientUnits="userSpaceOnUse"
       gradientTransform="translate(-462.50049,-797.50385)" />
    <linearGradient
       x1="209.0625"
       y1="-765.46082"
       x2="209.0625"
       y2="-781.62268"
       id="linearGradient44039"
       xlink:href="#linearGradient15606-1"
       gradientUnits="userSpaceOnUse"
       gradientTransform="matrix(1.5,0,0,1.5,-364.99949,1176.9562)" />
    <linearGradient
       id="linearGradient15606-1">
      <stop
         id="stop15608-0"
         style="stop-color:#ffffff;stop-opacity:0.58823502"
         offset="0" />
      <stop
         id="stop15610-5"
         style="stop-color:#ffffff;stop-opacity:0.86274499"
         offset="1" />
    </linearGradient>
    <linearGradient
       x1="294.3429"
       y1="256.58133"
       x2="294.41818"
       y2="243.13852"
       id="linearGradient44042"
       xlink:href="#linearGradient10286-3"
       gradientUnits="userSpaceOnUse"
       gradientTransform="matrix(2.99213,0,0,3.00466,-830.71149,-727.44385)" />
    <linearGradient
       id="linearGradient10286-3">
      <stop
         id="stop10288-8"
         style="stop-color:#b3b3b3;stop-opacity:1"
         offset="0" />
      <stop
         id="stop10290-7"
         style="stop-color:#e6e6e6;stop-opacity:1"
         offset="1" />
    </linearGradient>
    <linearGradient
       x1="110.96875"
       y1="976.29968"
       x2="110.96875"
       y2="992.375"
       id="linearGradient43236"
       xlink:href="#linearGradient4145-42"
       gradientUnits="userSpaceOnUse" />
    <linearGradient
       id="linearGradient4145-42">
      <stop
         id="stop4953"
         style="stop-color:#e694bb;stop-opacity:1"
         offset="0" />
      <stop
         id="stop4955"
         style="stop-color:#d3819a;stop-opacity:1"
         offset="0.26238" />
      <stop
         id="stop4957"
         style="stop-color:#b25a64;stop-opacity:1"
         offset="0.704952" />
      <stop
         id="stop4959"
         style="stop-color:#98313d;stop-opacity:1"
         offset="1" />
    </linearGradient>
    <linearGradient
       x1="110.96875"
       y1="976.29968"
       x2="110.99982"
       y2="991.87488"
       id="linearGradient14097-7"
       xlink:href="#linearGradient4145-42"
       gradientUnits="userSpaceOnUse"
       gradientTransform="matrix(1,0,0,1.00011,0,-0.10551)" />
    <linearGradient
       x1="110.96875"
       y1="976.29968"
       x2="110.96875"
       y2="992.375"
       id="linearGradient21742"
       xlink:href="#linearGradient4145-42"
       gradientUnits="userSpaceOnUse"
       gradientTransform="matrix(1.00399,0,0,1.00959,-1.1658,-9.36636)" />
    <clipPath
       clipPathUnits="userSpaceOnUse"
       id="clipPath867">
      <g
         inkscape:label="Clip"
         id="use869">
        <path
           d="m 47.000614,3.0210706 v 0.75 40.5000404 0.72723 h 0.75 32.499399 0.75 v -0.72723 -25.50003 -0.3282 l -0.2344,-0.2343 -14.9059,-15.0000104 -0.1875,-0.1875 h -0.3282 -17.593399 z"
           id="path875"
           style="color:#000000;font-style:normal;font-variant:normal;font-weight:normal;font-stretch:normal;font-size:medium;line-height:normal;font-family:'Andale Mono';text-indent:0pt;text-align:start;text-decoration:none;text-decoration-line:none;letter-spacing:normal;word-spacing:normal;text-transform:none;direction:ltr;text-anchor:start;display:inline;overflow:visible;visibility:visible;fill:#000000;fill-opacity:1;fill-rule:nonzero;stroke:none;stroke-width:1;marker:none"
           inkscape:connector-curvature="0" />
      </g>
    </clipPath>
  </defs>
  <metadata
     id="metadata21749">
    <rdf:RDF>
      <cc:Work
         rdf:about="">
        <dc:format>image/svg+xml</dc:format>
        <dc:type
           rdf:resource="http://purl.org/dc/dcmitype/StillImage" />
        <dc:title></dc:title>
      </cc:Work>
    </rdf:RDF>
  </metadata>
  <path
     style="color:#000000;font-style:normal;font-variant:normal;font-weight:normal;font-stretch:normal;font-size:medium;line-height:normal;font-family:'Andale Mono';text-indent:0pt;text-align:start;text-decoration:none;text-decoration-line:none;letter-spacing:normal;word-spacing:normal;text-transform:none;direction:ltr;text-anchor:start;display:inline;overflow:visible;visibility:visible;fill:#1a1a1a;fill-opacity:1;stroke:none;stroke-width:5.99873972;marker:none"
     d="M 29.705078 -0.083984375 C 27.658234 -0.075805254 25.583576 0.00449542 25.1875 0.013671875 L 7 0.013671875 C 6.813106 -0.004321175 6.624454 -0.004321175 6.4375 0.013671875 C 5.062346 0.27607036 3.975341 1.6123101 4 3.0117188 L 4 45 C 4.00015 46.570313 5.429312 47.99985 7 48 L 41 48 C 42.570687 47.99985 43.99985 46.570313 44 45 L 44 18.818359 C 44.018 18.026395 44.215294 8.8914456 43.664062 8.3222656 L 34.054688 0.24804688 C 33.770027 -0.027426575 31.751922 -0.092163496 29.705078 -0.083984375 z M 31.195312 3.0097656 L 31.328125 10.513672 C 31.340155 11.195372 31.966379 11.80479 32.644531 11.792969 L 40.416016 11.65625 C 40.548988 11.674363 40.684161 11.672765 40.816406 11.650391 L 40.898438 14.679688 L 41 18.771484 L 41 44.271484 L 41 44.998047 L 40.25 44.998047 L 7.75 44.998047 L 7 44.998047 L 7 44.271484 L 7 3.7714844 L 7 3.0214844 L 7.75 3.0214844 L 25.34375 3.0214844 L 25.671875 3.0214844 L 31.195312 3.0097656 z M 10.501953 9.7597656 C 9.9365584 9.7597656 9.4785156 10.217697 9.4785156 10.783203 L 9.4785156 21.96875 C 9.4785156 22.534145 9.9365584 22.992188 10.501953 22.992188 L 15.082031 22.992188 L 15.082031 37.378906 C 15.082031 37.944301 15.540074 38.404297 16.105469 38.404297 L 37.121094 38.404297 C 37.686489 38.404297 38.144531 37.944301 38.144531 37.378906 L 38.144531 16.365234 C 38.144531 15.79984 37.686489 15.341797 37.121094 15.341797 L 22.734375 15.341797 L 22.734375 10.783203 C 22.734375 10.217809 22.274379 9.7597656 21.708984 9.7597656 L 10.501953 9.7597656 z M 11.525391 11.806641 L 20.685547 11.806641 L 20.685547 13.496094 L 11.525391 13.496094 L 11.525391 11.806641 z M 11.525391 15.542969 L 15.082031 15.542969 L 15.082031 17.208984 L 11.525391 17.208984 L 11.525391 15.542969 z M 17.128906 15.542969 L 20.685547 15.542969 L 20.685547 17.208984 L 17.128906 17.208984 L 17.128906 15.542969 z M 22.732422 17.388672 L 36.097656 17.388672 L 36.097656 36.355469 L 17.128906 36.355469 L 17.128906 22.992188 L 21.285156 22.992188 L 26.580078 28.287109 L 25.742188 29.126953 C 25.185976 29.683165 25.440426 30.635982 26.201172 30.839844 L 30.470703 31.982422 C 31.238616 32.188804 31.925728 31.480192 31.724609 30.728516 L 30.580078 26.460938 C 30.376327 25.700863 29.423904 25.445237 28.867188 26.001953 L 28.027344 26.839844 L 22.732422 21.544922 L 22.732422 18.240234 C 22.732422 18.238034 22.734375 18.234622 22.734375 18.232422 C 22.734375 18.230222 22.732422 18.228762 22.732422 18.226562 L 22.732422 17.388672 z M 11.525391 19.257812 L 15.082031 19.257812 L 15.082031 20.945312 L 11.525391 20.945312 L 11.525391 19.257812 z M 17.128906 19.257812 L 20.685547 19.257812 L 20.685547 20.945312 L 17.128906 20.945312 L 17.128906 19.257812 z "
     id="path14075" />
</svg>

<svg xmlns="http://www.w3.org/2000/svg" width="48" height="48"><defs><linearGradient id="a"><stop offset="0" stop-color="#dc85e9"/><stop offset="1" stop-color="#f2cbf8"/></linearGradient><linearGradient id="b"><stop offset="0" stop-color="#dc85e9"/><stop offset="1" stop-color="#f2cbf8"/></linearGradient><linearGradient id="c"><stop offset="0" stop-color="#fff" stop-opacity=".588"/><stop offset="1" stop-color="#fff" stop-opacity=".863"/></linearGradient><linearGradient id="d"><stop offset="0" stop-color="#b3b3b3"/><stop offset="1" stop-color="#e6e6e6"/></linearGradient><linearGradient id="e"><stop offset="0" stop-color="#e694bb"/><stop offset=".262" stop-color="#d3819a"/><stop offset=".705" stop-color="#b25a64"/><stop offset="1" stop-color="#98313d"/></linearGradient></defs><path style="line-height:normal;text-indent:0;text-align:start;text-decoration-line:none;text-transform:none;marker:none" d="M29.705-.084c-2.047.008-4.121.088-4.517.098H7a2.938 2.938 0 0 0-.563 0C5.063.276 3.975 1.612 4 3.012V45c0 1.57 1.43 3 3 3h34c1.57 0 3-1.43 3-3V18.818c.018-.792.215-9.927-.336-10.496L34.054.248c-.284-.275-2.302-.34-4.349-.332zm1.49 3.094l.133 7.504c.012.681.638 1.29 1.317 1.279l7.771-.137c.133.018.268.017.4-.006l.082 3.03L41 18.77v26.227H7V3.021h18.672l5.523-.011zM10.502 9.76c-.565 0-1.023.458-1.023 1.023V21.97c0 .565.458 1.023 1.023 1.023h4.58V37.38c0 .565.458 1.025 1.023 1.025h21.016c.565 0 1.024-.46 1.024-1.025V16.365c0-.565-.459-1.023-1.024-1.023H22.734v-4.559c0-.565-.46-1.023-1.025-1.023H10.502zm1.023 2.047h9.16v1.69h-9.16v-1.69zm0 3.736h3.557v1.666h-3.557v-1.666zm5.604 0h3.557v1.666h-3.557v-1.666zm5.603 1.846h13.366v18.966h-18.97V22.992h4.157l5.295 5.295-.838.84a1.025 1.025 0 0 0 .46 1.713l4.269 1.142c.768.207 1.455-.502 1.254-1.253L30.58 26.46a1.025 1.025 0 0 0-1.713-.459l-.84.838-5.295-5.295V18.24l.002-.008-.002-.005v-.838zm-11.207 1.869h3.557v1.687h-3.557v-1.687zm5.604 0h3.557v1.687h-3.557v-1.687z" color="#000" font-weight="400" font-family="Andale Mono" overflow="visible" fill="#1a1a1a"/></svg>
